X: 1
T: Ferny Hill
M: 4/4
L: 1/8
K: Edor
~B3 B BAFE|D2 EF DEFA|BE ~E2 B3 c|dfeg fedc|
~B3 B BAFE|D2 EF DEFA|BE ~E2 BABc|dfeg fedc:|]
df ~f2 e2 fe|d2 fd edBA|dfaf e2 fe|dBAF FE E2|
df ~f2 e2 fe|d2 fd edcd|~B3 B BAFA|dBAF FE E2|
df ~f2 e2 fe|d2 fd edBA|dfaf e2 fe|dBAF FE E2|
~a3 f e2 fe|d2 fd edcd |~B3 B BAFA|dBAF FE E2|]
T: Little Molly
M: 4/4
L: 1/8
K: Edor
FA ~A2 A2 BA|FA A2 BcdA|FA ~A2 A2 BA|GEFD ~E2 EG |
FA ~A2 A2 BA|FA A2 BcdA|FA ~A2 A2 BA|GEFD ~E2 EA|]
[|: Beed e2ef |gbaf gfeg |fddc d2Ad|fAaA bAaf |
fged (3Bcd ef|gbaf gfeg|fddc dBAF|GBAF GE ~E2 :|]
|: ~G2 GF GABc|dcde dBAF|G2 BG FGA=c|BGAF GEED|
~G2 GF GABc|dcde dBAF|G2 BG FGA=c|BGAF GEED|]
